Obsidian-SemiLight/actions/24s/view-bank.svg

<svg viewBox="0 0 24 24" xmlns="http://www.w3.org/2000/svg"><path d="m12 4-8 4.6230469v.375 1.0019531h1v1 8h-1v1h16v-1h-1v-8-1h1v-1.0019531-.375zm0 1.15625 6.650391 3.8417969h-13.3007816zm-6 4.84375h2v1 8h-2v-8zm3 0h6v1 8h-1v-4h-4v4h-1v-8zm7 0h2v1 8h-2v-8z" fill="#4d4d4d"/></svg>

<svg xmlns="http://www.w3.org/2000/svg" viewBox="0 0 24 24">
  <defs id="defs3051">
    <style type="text/css" id="current-color-scheme">
      .ColorScheme-Text {
        color:#4d4d4d;
      }
      </style>
  </defs>
  <path
     style="fill:currentColor;fill-opacity:1;stroke:none" 
     d="M 12 4 L 4 8.6230469 L 4 8.9980469 L 4 10 L 5 10 L 5 11 L 5 19 L 4 19 L 4 20 L 20 20 L 20 19 L 19 19 L 19 11 L 19 10 L 20 10 L 20 8.9980469 L 20 8.6230469 L 12 4 z M 12 5.15625 L 18.650391 8.9980469 L 5.3496094 8.9980469 L 12 5.15625 z M 6 10 L 8 10 L 8 11 L 8 19 L 6 19 L 6 11 L 6 10 z M 9 10 L 15 10 L 15 11 L 15 19 L 14 19 L 14 15 L 10 15 L 10 19 L 9 19 L 9 11 L 9 10 z M 16 10 L 18 10 L 18 11 L 18 19 L 16 19 L 16 11 L 16 10 z "
     class="ColorScheme-Text"
     />
</svg>
